X: 69
T: No_72_Arapaho_Hunting_Song.krn
N: Derived from No_72_Arapaho_Hunting_Song.krn
%%abc-version 2.0
%%abcx-abcm2ps-target-version 5.9.1 (29 Sep 2008)
%%abc-creator hum2abc beta
%%abcx-conversion-date 2019/03/15 08:27:55
%%humdrum-veritas 4016804798
%%humdrum-veritas-data 3008180683
%%linebreak <none>
%%barnumbers 0
L: 1/8
M: 2/4
%%staves {1 2}
V: 1 clef=bass
V: 2 clef=bass
K: Bb
[V:1] [K:clef=bass][M:2/4]F,3/G,/ (G,F,) [I:setbarnb 2]| 
[V:2] [K:clef=bass][M:2/4]G,,2G,,2 | 
[V:1] F,2F,2 | 
[V:2] G,,2G,,2 | 
[V:1] F,2D, z | 
[V:2] z4 | 
[V:1] F,3/G,/ (G,F,) | 
[V:2] z4 | 
[V:1] F,2F,2 | 
[V:2] z4 | 
[V:1] F,2D, z | 
[V:2] z4 | 
[V:1] D,2D,2 | 
[V:2] z4 | 
[V:1] D,3/D,/D,2 | 
[V:2] z4 | 
[V:1] [M:3/4]D,2D,2B,, z | 
[V:2] [M:3/4]z6 | 
[V:1] [M:2/4]D,2D,2 | 
[V:2] [M:2/4]z4 | 
[V:1] D,3/D,/D,2 | 
[V:2] z4 | 
[V:1] [M:3/4]D,2D,2B,, z :|]  
[V:2] [M:3/4]z6 :|]  
[V:1] [M:2/4]D,2D, z |]  
[V:2] [M:2/4]z4 |]  



